X: 1455
T: And Fox Ate Nandy's Red Shoe
R: reel
M: 4/4
K: Adorian
|:e2Ac -cABA|GAAG ABcd|eAAc AABA|GAAG ABcd:|
c2AB -BABA|GAAB ABcd|c2AB -BABc|d2d2 d2d2|
c2AB -BABA|GAAB ABcd|c2AB -BABA|GAAG ABcd||
|:eeea -aged|cABG AGEG|eeea -aged|(3cBA BGA2|
eeea -aged|cAA2 AGEG|eeAc cABA|GAAG ABcd:|

